X:121
T:Ginnie Pug. (p)1657.PLFD.121
T:Srawberries & Cream. (p)1657.PLFD.121
M:6/4
L:1/4
Q:3/4=100
S:Playford, Dancing Master,3rd Ed.,1657
O:England
H:1657.
Z:Chris Partington.
K:F
D|G2AB2c|d3f3|e2defg|d3-d2:|
|:B/c/|d>_edc2B|c3d3|B>cBA2G|A3-A2B/c/|
d>_edd>_ed|c>dcc>d_e|d>cBA2G|G3-G2:|
